public/assets/img/cv.svg

<svg xmlns="http://www.w3.org/2000/svg" width="32" height="32" viewBox="0 0 256 256"><defs><linearGradient id="a"><stop offset="0" stop-color="#b565a7"/><stop offset="1" stop-color="#5f4b8b"/></linearGradient></defs><path d="M208 88h-56V32z" fill="url(#a)" opacity=".25"/><path fill="#5f4b8b" d="M224 152a8 8 0 0 1-8 8h-24v16h16a8 8 0 0 1 0 16h-16v16a8 8 0 0 1-16 0v-56a8 8 0 0 1 8-8h32a8 8 0 0 1 8 8zM92 172a28 28 0 0 1-28 28h-8v8a8 8 0 0 1-16 0v-56a8 8 0 0 1 8-8h16a28 28 0 0 1 28 28zm-16 0a12 12 0 0 0-12-12h-8v24h8a12 12 0 0 0 12-12zm88 8a36 36 0 0 1-36 36h-16a8 8 0 0 1-8-8v-56a8 8 0 0 1 8-8h16a36 36 0 0 1 36 36zm-16 0a20 20 0 0 0-20-20h-8v40h8a20 20 0 0 0 20-20zM40 112V40a16 16 0 0 1 16-16h96a8 8 0 0 1 5.66 2.34l56 56A8 8 0 0 1 216 88v24a8 8 0 0 1-16 0V96h-48a8 8 0 0 1-8-8V40H56v72a8 8 0 0 1-16 0zm120-32h28.69L160 51.31z"/><path fill="url(#a)" d="M224 152a8 8 0 0 1-8 8h-24v16h16a8 8 0 0 1 0 16h-16v16a8 8 0 0 1-16 0v-56a8 8 0 0 1 8-8h32a8 8 0 0 1 8 8zM92 172a28 28 0 0 1-28 28h-8v8a8 8 0 0 1-16 0v-56a8 8 0 0 1 8-8h16a28 28 0 0 1 28 28zm-16 0a12 12 0 0 0-12-12h-8v24h8a12 12 0 0 0 12-12zm88 8a36 36 0 0 1-36 36h-16a8 8 0 0 1-8-8v-56a8 8 0 0 1 8-8h16a36 36 0 0 1 36 36zm-16 0a20 20 0 0 0-20-20h-8v40h8a20 20 0 0 0 20-20zM40 112V40a16 16 0 0 1 16-16h96a8 8 0 0 1 5.66 2.34l56 56A8 8 0 0 1 216 88v24a8 8 0 0 1-16 0V96h-48a8 8 0 0 1-8-8V40H56v72a8 8 0 0 1-16 0zm120-32h28.69L160 51.31z"/></svg>

<svg xmlns="http://www.w3.org/2000/svg" width="32" height="32" viewBox="0 0 256 256" focusable="false">
  <defs>
    <linearGradient id="gradient">
      <stop offset="0" stop-color="#b565a7"></stop>
      <stop offset="1" stop-color="#5f4b8b"></stop>
    </linearGradient>
  </defs>
  <path d="M208,88H152V32Z" fill="url(#gradient)" opacity="0.25"></path>
  <path
    fill="#5f4b8b"
    id="cv-solid"
    d="M224,152a8,8,0,0,1-8,8H192v16h16a8,8,0,0,1,0,16H192v16a8,8,0,0,1-16,0V152a8,8,0,0,1,8-8h32A8,8,0,0,1,224,152ZM92,172a28,28,0,0,1-28,28H56v8a8,8,0,0,1-16,0V152a8,8,0,0,1,8-8H64A28,28,0,0,1,92,172Zm-16,0a12,12,0,0,0-12-12H56v24h8A12,12,0,0,0,76,172Zm88,8a36,36,0,0,1-36,36H112a8,8,0,0,1-8-8V152a8,8,0,0,1,8-8h16A36,36,0,0,1,164,180Zm-16,0a20,20,0,0,0-20-20h-8v40h8A20,20,0,0,0,148,180ZM40,112V40A16,16,0,0,1,56,24h96a8,8,0,0,1,5.66,2.34l56,56A8,8,0,0,1,216,88v24a8,8,0,0,1-16,0V96H152a8,8,0,0,1-8-8V40H56v72a8,8,0,0,1-16,0ZM160,80h28.69L160,51.31Z"
  ></path>
  <path
    fill="url(#gradient)"
    id="cv-gradient"
    d="M224,152a8,8,0,0,1-8,8H192v16h16a8,8,0,0,1,0,16H192v16a8,8,0,0,1-16,0V152a8,8,0,0,1,8-8h32A8,8,0,0,1,224,152ZM92,172a28,28,0,0,1-28,28H56v8a8,8,0,0,1-16,0V152a8,8,0,0,1,8-8H64A28,28,0,0,1,92,172Zm-16,0a12,12,0,0,0-12-12H56v24h8A12,12,0,0,0,76,172Zm88,8a36,36,0,0,1-36,36H112a8,8,0,0,1-8-8V152a8,8,0,0,1,8-8h16A36,36,0,0,1,164,180Zm-16,0a20,20,0,0,0-20-20h-8v40h8A20,20,0,0,0,148,180ZM40,112V40A16,16,0,0,1,56,24h96a8,8,0,0,1,5.66,2.34l56,56A8,8,0,0,1,216,88v24a8,8,0,0,1-16,0V96H152a8,8,0,0,1-8-8V40H56v72a8,8,0,0,1-16,0ZM160,80h28.69L160,51.31Z"
  ></path>
</svg>
